X:562
T:He Left  Us in Sorrow.
T:d'fag se sinn .brona.c.
R:air
N:"Plaintively.""Collected from J. O'Neill."
B:O'Neill's 562
Z:transcribed by J.B. Walsh walsh@math.ubc.ca
M:2/4
L:1/8
<START_ANN> %Q:70 <END_ANN>
K:Amix
D|dc de|fg ed/c/|dc .A.A|A3 f/g/|
ag fa|gf e.A|.de/f/ g/e/ed/c/|
d3 f/g/|ag fb/a/|gf ed/c/|de/f/ g/f/e/d/|
cA z c|dc de|fd ge/d/|dc A3G/A/B/A3||
